icons/svg/sound.svg

﻿<?xml version="1.0" encoding="utf-8"?>
<!DOCTYPE svg PUBLIC "-//W3C//DTD SVG 1.1//EN" "http://www.w3.org/Graphics/SVG/1.1/DTD/svg11.dtd">
<svg xmlns="http://www.w3.org/2000/svg" xmlns:xlink="http://www.w3.org/1999/xlink" version="1.1" baseProfile="full" width="24" height="24" viewBox="0 0 24.00 24.00" enable-background="new 0 0 24.00 24.00" xml:space="preserve">
	<path fill="#000000" fill-opacity="1" stroke-width="0.2" stroke-linejoin="round" d="M 3,9.00002L 6.99998,9.00004L 12,4.00002L 12,20L 6.99998,15L 2.99998,15L 3,9.00002 Z M 20.9999,12.0001C 20.9999,16.2832 18.008,19.8676 14,20.777L 14,18.7102C 16.8914,17.8496 18.9999,15.1711 18.9999,12.0001C 18.9999,8.8291 16.8914,6.15058 14,5.29L 14,3.22307C 18.008,4.13255 20.9999,7.71688 20.9999,12.0001 Z M 17,12C 17,14.0503 15.7659,15.8124 14,16.584L 14,7.41605C 15.7659,8.1876 17,9.94968 17,12 Z "/>
</svg>

<svg xmlns="http://www.w3.org/2000/svg" version="1.1" baseProfile="full" width="24" height="24" viewBox="0 0 24.00 24.00" xml:space="preserve"><path fill="#000" fill-opacity="1" stroke-width=".2" stroke-linejoin="round" d="M3 9h4l5-5v16l-5-5H3V9zm18 3c0 4.283-2.992 7.868-7 8.777V18.71c2.89-.86 5-3.54 5-6.71s-2.11-5.85-5-6.71V3.223c4.008.91 7 4.494 7 8.777zm-4 0c0 2.05-1.234 3.812-3 4.584V7.416c1.766.772 3 2.534 3 4.584z"/></svg>
